X:170
T: Mountain Ranger HP
S: "Roche Collection of Traditional Irish Music" [II/10/211]
L: 1/8
M: 4/4
R: hornpipe
K: D
FG | A2 AB AFDF | Adcd AFDF | GBGE FAFD | E2 EE E2 AG |
FDFA d2 cd | edcB A3c | dfec dcA^G | A2 AB A2 :|
cd | e2 ef ecAc | ea^ga ecAc | dfdB cecA | B2 BB BABc |
dcdB AFDF | Adce d2 cB | AGFD GEDC | D2 DE D2 :|
